X:3
T:5. Ronde
T:Wo bistu
C:Tielman Susato
S:Tileman Susato: Danserye (1551)
R:Ronde
M:4/2
L:1/2
T: Tenor
K:F -8va
AA/2A/2cB|ccdc|AFB>c|d2c2|cc/2c/2d>c|
B>AGc|BAG2|F2F2|cc/2c/2d>c|B>AGc|
BAG2|F2F2::cc/2c/2 B/2A/2G/2F/2|G2F2|cc/2c/2 B/2A/2G/2F/2|G2F2:|
